images/sc2/STICK.svg

<?xml version='1.0' encoding='utf-8'?>
<svg xmlns="http://www.w3.org/2000/svg" viewBox="402.975 265.276 224.496 220.627" width="89.7982" height="88.2508"><path d="M 517.7156 277.3899 C 500.6814 277.5024 493.5454 278.8728 479.4578 284.7375 C 464.0276 291.1611 446.1807 305.6778 437.5008 318.8645 C 418.1956 348.1932 415.0014 381.2656 428.4656 412.4172 C 442.7480 445.4616 473.0566 468.7272 506.9617 472.6711 C 517.3224 473.8766 517.3085 473.8758 527.2156 472.7001 C 538.9060 471.3131 547.1650 468.8480 558.2332 463.4384 C 569.2835 458.0376 577.2446 452.1067 586.4285 442.4384 C 598.8064 429.4077 607.6638 413.9892 611.7996 398.2743 C 614.4925 388.0418 615.4439 368.5883 613.7605 358.1532 C 607.6948 320.5523 579.3818 289.6686 541.7156 279.5673 C 534.4797 277.6268 530.9105 277.3026 517.7156 277.3896 Z  M 517.1824 282.1438 C 524.8895 282.0608 532.5248 282.7312 537.2156 284.1828 C 555.9045 289.9661 571.9071 301.9379 582.3679 317.9641 C 590.8081 330.8946 594.7156 344.2918 594.7156 360.3039 C 594.7156 382.0438 586.4858 400.9387 570.0535 416.9270 C 558.9496 427.7308 548.8956 433.3183 534.2156 436.8410 C 517.2964 440.9009 498.8359 438.5465 482.8504 430.2903 C 466.9713 422.0891 455.7141 410.5785 447.6258 394.2746 C 426.3814 351.4515 449.7337 299.2864 496.7156 284.6164 C 501.6964 283.0612 509.4753 282.2264 517.1824 282.1438 Z  M 555.3718 288.9426 C 557.5759 288.8626 571.6119 297.7839 578.5457 303.7746 C 592.2239 315.5926 602.7496 332.2528 607.9207 350.2746 C 609.8911 357.1414 610.2062 360.4702 610.1492 373.7746 C 610.0894 387.7082 609.8066 390.1793 607.3465 398.2238 C 602.0263 415.6206 592.9476 430.4622 580.0554 442.8430 C 567.3241 455.0692 554.6835 462.1213 537.8484 466.3918 C 518.7927 471.2257 497.1541 468.8199 479.2156 459.8742 C 459.5786 450.0815 444.1350 434.6165 434.6824 415.2746 C 426.8194 399.1853 425.2109 392.1090 425.2429 373.7746 C 425.2746 355.7341 426.9145 348.3973 434.2937 333.2746 C 442.4175 316.6259 457.1166 301.1700 472.7507 292.8371 C 481.0288 288.4249 480.9515 289.0587 472.5281 294.6926 C 450.0390 309.7342 435.6984 336.3399 435.7214 362.9817 C 435.7588 407.2169 476.3739 444.9982 521.1746 442.4738 C 533.0122 441.8068 540.5749 439.9562 550.4070 435.3196 C 581.7466 420.5406 600.1180 390.9019 598.4461 357.8196 C 597.1141 331.4623 581.3897 304.8246 559.9207 292.5578 C 557.0082 290.8936 554.8543 289.3019 555.1355 289.0207 C 555.1844 288.9717 555.2634 288.9467 555.3718 288.9427 Z  M 520.0789 295.0500 C 518.1369 294.9880 516.1808 295.0180 514.2156 295.1420 C 503.2233 295.8362 496.4542 297.7437 486.9363 302.8315 C 477.6405 307.8005 471.7072 312.7469 466.0320 320.2592 C 445.2065 347.8254 448.2328 384.2555 473.2957 407.7006 C 483.1294 416.8995 494.0326 422.3558 507.4734 424.8061 C 513.9779 425.9920 528.0636 425.1632 534.7156 423.2026 C 551.8905 418.1407 567.3731 405.1939 575.2879 389.2748 C 581.9715 375.8320 584.1812 360.2923 581.3328 346.7748 C 575.1616 317.4885 549.2081 295.9872 520.0789 295.0502 Z  M 518.2801 299.4953 C 523.8488 299.4953 529.3125 300.0600 533.2156 301.2004 C 543.3331 304.1567 552.6282 309.6783 560.2664 317.2688 C 572.1834 329.1113 578.0228 343.3074 577.9558 360.2746 C 577.8497 387.1988 558.1800 412.4528 532.0711 419.1887 L 532.0711 419.1887 C 524.4992 421.1417 510.1565 421.1479 502.7156 419.2027 C 476.4772 412.3423 456.7156 387.0043 456.7156 360.2222 C 456.7156 333.1016 476.0615 308.2883 502.7156 301.2203 C 507.0374 300.0740 512.7113 299.4975 518.2801 299.4937 Z " style="fill:#000000" /></svg>

<svg xmlns="http://www.w3.org/2000/svg" width="89.798" height="88.251" viewBox="402.975 265.276 224.496 220.627"><path d="M517.716 277.39c-17.035.112-24.17 1.483-38.258 7.348-15.43 6.423-33.277 20.94-41.957 34.127-19.305 29.328-22.5 62.4-9.035 93.552 14.282 33.045 44.59 56.31 78.496 60.254 10.36 1.206 10.346 1.205 20.254.03 11.69-1.388 19.949-3.853 31.017-9.263 11.05-5.4 19.012-11.331 28.196-21 12.377-13.03 21.235-28.449 25.37-44.164 2.693-10.232 3.645-29.686 1.962-40.12-6.066-37.602-34.38-68.485-72.045-78.587-7.236-1.94-10.806-2.264-24-2.177m-.534 4.754c7.707-.083 15.343.587 20.034 2.039 18.688 5.783 34.691 17.755 45.152 33.781 8.44 12.93 12.348 26.328 12.348 42.34 0 21.74-8.23 40.635-24.663 56.623-11.103 10.804-21.157 16.391-35.837 19.914-16.92 4.06-35.38 1.705-51.366-6.55-15.879-8.202-27.136-19.712-35.224-36.016-21.245-42.823 2.108-94.989 49.09-109.659 4.98-1.555 12.76-2.39 20.466-2.472m38.19 6.799c2.204-.08 16.24 8.84 23.174 14.832 13.678 11.818 24.204 28.478 29.375 46.5 1.97 6.866 2.285 10.195 2.228 23.5-.06 13.933-.342 16.404-2.803 24.449-5.32 17.397-14.398 32.238-27.29 44.619-12.732 12.226-25.373 19.278-42.208 23.549-19.055 4.834-40.694 2.428-58.632-6.518-19.637-9.793-35.081-25.258-44.534-44.6-7.863-16.089-9.471-23.165-9.44-41.5.033-18.04 1.672-25.377 9.052-40.5 8.124-16.648 22.823-32.104 38.457-40.437 8.278-4.412 8.2-3.778-.223 1.856-22.489 15.041-36.83 41.647-36.807 68.289.038 44.235 40.653 82.016 85.454 79.492 11.837-.667 19.4-2.518 29.232-7.154 31.34-14.78 49.711-44.418 48.04-77.5-1.333-26.358-17.057-52.995-38.526-65.262-2.913-1.664-5.067-3.256-4.786-3.537q.074-.074.237-.078m-35.293 6.107a62 62 0 0 0-5.863.092c-10.993.694-17.762 2.602-27.28 7.69-9.296 4.969-15.229 9.915-20.904 17.427-20.825 27.566-17.8 63.996 7.264 87.442 9.833 9.198 20.737 14.655 34.177 17.105 6.505 1.186 20.59.357 27.243-1.603 17.174-5.062 32.657-18.01 40.572-33.928 6.683-13.443 8.893-28.983 6.045-42.5-6.171-29.286-32.125-50.788-61.254-51.725m-1.799 4.445c5.569 0 11.033.565 14.936 1.705 10.117 2.957 19.412 8.478 27.05 16.069 11.917 11.842 17.757 26.038 17.69 43.006-.106 26.924-19.776 52.178-45.885 58.914-7.572 1.953-21.915 1.959-29.355.014-26.239-6.86-46-32.199-46-58.98 0-27.121 19.346-51.935 46-59.003 4.321-1.146 9.995-1.723 15.564-1.726Z" style="fill:#000"/></svg>
